storage/app/icons/phosphoricons/duotone/bug-duotone.svg

<svg xmlns="http://www.w3.org/2000/svg" fill="currentColor" viewBox="0 0 256 256"><path d="M208 128v16a80 80 0 0 1-160 0v-16Z" opacity=".2"/><path d="M144 92a12 12 0 1 1 12 12 12 12 0 0 1-12-12m-44-12a12 12 0 1 0 12 12 12 12 0 0 0-12-12m116 64a87.8 87.8 0 0 1-3 23l22.24 9.72A8 8 0 0 1 232 192a7.9 7.9 0 0 1-3.2-.67L207.38 182a88 88 0 0 1-158.76 0l-21.42 9.33a7.9 7.9 0 0 1-3.2.67 8 8 0 0 1-3.2-15.33L43 167a87.8 87.8 0 0 1-3-23v-8H16a8 8 0 0 1 0-16h24v-8a87.8 87.8 0 0 1 3-23l-22.2-9.67a8 8 0 1 1 6.4-14.66L48.62 74a88 88 0 0 1 158.76 0l21.42-9.36a8 8 0 0 1 6.4 14.66L213 89.05a87.8 87.8 0 0 1 3 23v8h24a8 8 0 0 1 0 16h-24ZM56 120h144v-8a72 72 0 0 0-144 0Zm64 95.54V136H56v8a72.08 72.08 0 0 0 64 71.54M200 144v-8h-64v79.54A72.08 72.08 0 0 0 200 144"/></svg>

<svg xmlns="http://www.w3.org/2000/svg" viewBox="0 0 256 256" fill="currentColor"><path d="M208,128v16a80,80,0,0,1-160,0V128Z" opacity="0.2"/><path d="M144,92a12,12,0,1,1,12,12A12,12,0,0,1,144,92ZM100,80a12,12,0,1,0,12,12A12,12,0,0,0,100,80Zm116,64A87.76,87.76,0,0,1,213,167l22.24,9.72A8,8,0,0,1,232,192a7.89,7.89,0,0,1-3.2-.67L207.38,182a88,88,0,0,1-158.76,0L27.2,191.33A7.89,7.89,0,0,1,24,192a8,8,0,0,1-3.2-15.33L43,167A87.76,87.76,0,0,1,40,144v-8H16a8,8,0,0,1,0-16H40v-8a87.76,87.76,0,0,1,3-23L20.8,79.33a8,8,0,1,1,6.4-14.66L48.62,74a88,88,0,0,1,158.76,0l21.42-9.36a8,8,0,0,1,6.4,14.66L213,89.05a87.76,87.76,0,0,1,3,23v8h24a8,8,0,0,1,0,16H216ZM56,120H200v-8a72,72,0,0,0-144,0Zm64,95.54V136H56v8A72.08,72.08,0,0,0,120,215.54ZM200,144v-8H136v79.54A72.08,72.08,0,0,0,200,144Z"/></svg>
